!! 00000] TT[WS
!!!OTL: Tingfang wugeng
!!!ARE: Asia, China, Shanxi Qinyuan
!! Ethnic Group: Han
!! WII, 125
!!!SCT: J0592
!!!YEM: Copyright 1995, estate of Helmut Schaffrath.
**kern
*ICvox
*Ivox
*M2/4
*k[b-]
*F:
{4g
8g
8g
=1
8a
8g
8f
8d
=2
2g
=3
4cc
8dd
8cc
=4
4b-
8cc
8a
=5
4g
8g
8a
=6
8g
8f
8e
8d
=7
4.f
8g
=8
2f}
=9
{8dd
8ff
8dd
8cc
=10
4b-
4cc
=11
8dd
8ff
8dd
8cc
=12
4b-
8cc
8a
=13
4g
8g
8a
=14
8g
8f
8e
8d
=15
2f}
=16
{8d
8f
8d
8f
=17
2g
=18
4.cc
8a
=19
4g
4cc
=20
8g
8a
8g
8f
=21
8d
4f
8g}
=22
{8d
8c
8B-
8A
=23
2c
=24
8d
8f
8g
8f
=25
2c}
==
!!!AGN: Xiaodiao. Qingge
!!!ONB: ESAC (Essen Associative Code) Database: CHINA
!!!AMT: simple duple
!!!AIN: vox
!!!EED: Helmut Schaffrath
!!!EEV: 1.0
*-
